X:1
T:Apples In Winter
M:6/8
R:Jig
K:Edor
|:BEE dEE|BAG FEF|DED FDF|ABc ded|
BEE def|gag gfe|dBB AFF|1 FEE E2A:|2 FEE E2f||
gfe edB|g2e edB|d2e dFF|ABc def|
gfe edB|gfe edB|g2g efg|bge e2f|
g2e edB|gfe edB|d2e dFF|ABc def|
eBB def|gag gfe|dBB AFF|FEE E2A||
